; generated by PrusaSlicer 2.4.0+win64 on 2022-08-01 at 13:58:12 UTC

; 

; external perimeters extrusion width = 0.45mm
; perimeters extrusion width = 0.45mm
; infill extrusion width = 0.45mm
; solid infill extrusion width = 0.45mm
; top infill extrusion width = 0.40mm
; first layer extrusion width = 0.42mm

M73 P0 R71
M73 Q0 S71
M201 X1000 Y1000 Z200 E5000 ; sets maximum accelerations, mm/sec^2
M203 X200 Y200 Z12 E120 ; sets maximum feedrates, mm/sec
M204 P1250 R1250 T1250 ; sets acceleration (P, T) and retract acceleration (R), mm/sec^2
M205 X8.00 Y8.00 Z0.40 E4.50 ; sets the jerk limits, mm/sec
M205 S0 T0 ; sets the minimum extruding and travel feed rate, mm/sec
M107
;TYPE:Custom
M862.3 P "MK3S" ; printer model check
M862.1 P0.4 ; nozzle diameter check
M115 U3.10.0 ; tell printer latest fw version
G90 ; use absolute coordinates
M83 ; extruder relative mode
M104 S215 ; set extruder temp
M140 S60 ; set bed temp
M190 S60 ; wait for bed temp
M109 S215 ; wait for extruder temp
G28 W ; home all without mesh bed level
G80 ; mesh bed leveling
G1 Z0.2 F720
G1 Y-3 F1000 ; go outside print area
G92 E0
G1 X60 E9 F1000 ; intro line
G1 X100 E12.5 F1000 ; intro line
G92 E0
M221 S95

; Don't change E values below. Excessive value can damage the printer.

M907 E538 ; set extruder motor current
G21 ; set units to millimeters
G90 ; use absolute coordinates
M83 ; use relative distances for extrusion
M900 K0.05 ; Filament gcode LA 1.5
M900 K30 ; Filament gcode LA 1.0
M107
;LAYER_CHANGE
;Z:0.2
;HEIGHT:0.2
;BEFORE_LAYER_CHANGE
G92 E0.0
;0.2


G1 E-.8 F2100
G1 Z.4 F720
;AFTER_LAYER_CHANGE
;0.2
G1 X83.893 Y68.998 F10800
G1 Z.2 F720
G1 E.8 F2100
M204 S800
;TYPE:Skirt/Brim
;WIDTH:0.42
G1 F1200
G1 X86.201 Y66.192 E.11393
G1 X94.644 Y59.289 E.34194
G1 X104.145 Y54.245 E.33727
G1 X114.448 Y51.152 E.33728
G1 X125.188 Y50.13 E.33829
G1 X135.858 Y51.213 E.33625
G1 X146.142 Y54.364 E.33727
G1 X155.615 Y59.462 E.33728
G1 X163.91 Y66.309 E.33726
G1 X170.711 Y74.644 E.33728
G1 X175.755 Y84.145 E.33727
G1 X178.848 Y94.448 E.33728
G1 X179.872 Y105.138 E.33673
G1 X178.787 Y115.858 E.33782
G1 X175.642 Y126.127 E.33675
G1 X170.538 Y135.615 E.33779
G1 X163.799 Y143.808 E.33264
G1 X155.356 Y150.711 E.34194
G1 X145.855 Y155.755 E.33727
G1 X135.552 Y158.848 E.33728
G1 X124.844 Y159.872 E.33728
G1 X114.142 Y158.787 E.33727
G1 X103.858 Y155.636 E.33727
G1 X94.385 Y150.538 E.33728
G1 X86.09 Y143.691 E.33726
G1 X79.289 Y135.356 E.33728
G1 X74.245 Y125.855 E.33727
G1 X71.152 Y115.552 E.33728
G1 X70.128 Y104.844 E.33728
G1 X71.213 Y94.142 E.33727
G1 X74.358 Y83.873 E.33675
G1 X79.462 Y74.385 E.33779
G1 X83.855 Y69.044 E.21683
M204 S1000
; printing object rust-logo.stl id:0 copy 0
;WIPE_START
G1 F8640
G1 X85.946 Y66.502 E-.76
;WIPE_END
G1 E-.04 F2100
G1 Z.6 F720
G1 X116.99 Y111.213 F10800
G1 Z.2 F720
G1 E.8 F2100
M204 S800
;TYPE:Perimeter
G1 F1200
G1 X129.525 Y111.213 E.39303
G1 X131 Y111.307 E.04633
G1 X132.156 Y111.548 E.03703
M73 P0 R70
G1 X133.312 Y111.99 E.03882
G1 X134.154 Y112.501 E.03085
G1 X134.9 Y113.189 E.03184
G1 X135.368 Y113.864 E.02575
G1 X135.692 Y114.697 E.02804
G1 X135.793 Y115.5 E.02537
G1 X135.692 Y116.303 E.02537
G1 X135.368 Y117.136 E.02804
G1 X134.9 Y117.811 E.02575
G1 X134.154 Y118.499 E.03184
G1 X133.312 Y119.01 E.03085
G1 X132.156 Y119.452 E.03882
G1 X131 Y119.693 E.03703
G1 X129.525 Y119.787 E.04633
G1 X116.213 Y119.787 E.41739
G1 X116.213 Y111.213 E.26884
G1 X116.93 Y111.213 E.02248
M204 S1000
G1 X116.59 Y111.59 F10800
M204 S800
;TYPE:External perimeter
G1 F1200
G1 X129.513 Y111.59 E.40519
G1 X130.949 Y111.682 E.04511
G1 X132.049 Y111.911 E.03524
G1 X133.146 Y112.33 E.03681
G1 X133.926 Y112.804 E.0286
G1 X134.614 Y113.438 E.02935
G1 X135.033 Y114.042 E.02305
G1 X135.324 Y114.791 E.02518
G1 X135.413 Y115.5 E.02242
G1 X135.324 Y116.209 E.02242
G1 X135.033 Y116.958 E.02518
G1 X134.614 Y117.562 E.02305
G1 X133.926 Y118.196 E.02935
G1 X133.146 Y118.67 E.0286
G1 X132.049 Y119.089 E.03681
G1 X130.949 Y119.318 E.03524
G1 X129.513 Y119.41 E.04511
G1 X116.59 Y119.41 E.40519
G1 X116.59 Y111.65 E.24331
M204 S1000
G1 X116.456 Y111.213 F10800
;WIPE_START
G1 F8640
G1 X119.881 Y111.635 E-.76
;WIPE_END
G1 E-.04 F2100
G1 Z.6 F720
G1 X90.738 Y117.192 F10800
G1 Z.2 F720
G1 E.8 F2100
M204 S800
;TYPE:Perimeter
G1 F1200
G1 X90.738 Y117.601 E.01283
G1 X90.711 Y117.87 E.00846
G1 X90.616 Y118.342 E.01509
G1 X90.537 Y118.6 E.00846
G1 X90.351 Y119.044 E.01509
G1 X90.227 Y119.273 E.00819
G1 X90.08 Y119.504 E.00858
G1 X89.793 Y119.873 E.01464
G1 X89.607 Y120.068 E.00845
G1 X89.242 Y120.382 E.01509
G1 X89.021 Y120.537 E.00846
G1 X88.602 Y120.773 E.01509
G1 X88.355 Y120.881 E.00846
G1 X87.888 Y121.033 E.0154
G1 X87.405 Y121.122 E.0154
G1 X87.146 Y121.144 E.00816
G1 X86.885 Y121.148 E.00816
G1 X86.396 Y121.107 E.0154
G1 X85.916 Y121.003 E.0154
G1 X85.669 Y120.922 E.00816
G1 X85.427 Y120.826 E.00816
G1 X84.992 Y120.599 E.01539
G1 X84.601 Y120.326 E.01495
G1 X84.386 Y120.142 E.00889
G1 X84.053 Y119.792 E.01513
G1 X83.888 Y119.579 E.00846
G1 X83.631 Y119.172 E.01509
G1 X83.515 Y118.939 E.00816
G1 X83.414 Y118.699 E.00816
G1 X83.273 Y118.239 E.01509
G1 X83.22 Y117.975 E.00846
G1 X83.172 Y117.496 E.01509
G1 X83.172 Y117.226 E.00846
G1 X83.22 Y116.747 E.01509
G1 X83.273 Y116.482 E.00846
G1 X83.417 Y116.013 E.0154
G1 X83.622 Y115.566 E.0154
G1 X83.758 Y115.333 E.00846
G1 X84.041 Y114.944 E.01509
G1 X84.214 Y114.75 E.00816
G1 X84.399 Y114.567 E.00816
G1 X84.774 Y114.265 E.01509
G1 X85 Y114.118 E.00846
G1 X85.436 Y113.891 E.0154
G1 X85.898 Y113.724 E.0154
G1 X86.15 Y113.66 E.00816
G1 X86.405 Y113.613 E.00815
G1 X86.881 Y113.573 E.01495
G1 X87.394 Y113.597 E.01612
G1 X87.878 Y113.686 E.01542
G1 X88.137 Y113.761 E.00846
G1 X88.584 Y113.94 E.01509
G1 X88.824 Y114.064 E.00846
G1 X89.227 Y114.328 E.01509
G1 X89.621 Y114.667 E.01631
G1 X89.942 Y115.027 E.01513
G1 X90.107 Y115.257 E.00889
G1 X90.348 Y115.669 E.01495
G1 X90.537 Y116.122 E.01538
G1 X90.616 Y116.38 E.00846
G1 X90.711 Y116.851 E.01509
G1 X90.738 Y117.132 E.00884
M204 S1000
G1 X90.33 Y116.869 F10800
M204 S800
;TYPE:External perimeter
G1 F1200
G1 X90.361 Y117.139 E.00851
G1 X90.361 Y117.583 E.01392
G1 X90.338 Y117.814 E.00729
G1 X90.25 Y118.249 E.01392
G1 X90.182 Y118.471 E.00729
G1 X90.011 Y118.881 E.01392
G1 X89.772 Y119.287 E.01478
G1 X89.507 Y119.626 E.01349
G1 X89.347 Y119.794 E.00729
G1 X89.01 Y120.084 E.01392
G1 X88.82 Y120.218 E.00729
G1 X88.433 Y120.435 E.01392
G1 X88.22 Y120.529 E.00729
G1 X87.795 Y120.667 E.01403
G1 X87.355 Y120.748 E.01403
G1 X86.898 Y120.77 E.01435
G1 X86.452 Y120.734 E.01403
G1 X86.015 Y120.638 E.01403
G1 X85.585 Y120.482 E.01435
G1 X85.188 Y120.276 E.01402
G1 X84.833 Y120.027 E.0136
G1 X84.646 Y119.868 E.00771
G1 X84.339 Y119.546 E.01393
G1 X84.197 Y119.362 E.00729
G1 X83.96 Y118.987 E.01392
G1 X83.769 Y118.571 E.01435
G1 X83.639 Y118.146 E.01392
G1 X83.593 Y117.919 E.00729
G1 X83.549 Y117.477 E.01392
G1 X83.549 Y117.244 E.00729
G1 X83.593 Y116.803 E.01392
G1 X83.639 Y116.575 E.00729
G1 X83.77 Y116.147 E.01403
G1 X83.957 Y115.741 E.01403
G1 X84.074 Y115.54 E.00729
G1 X84.335 Y115.181 E.01392
G1 X84.651 Y114.849 E.01435
G1 X84.996 Y114.571 E.01392
G1 X85.191 Y114.444 E.00729
G1 X85.588 Y114.237 E.01403
G1 X86.008 Y114.085 E.01403
G1 X86.455 Y113.988 E.01435
G1 X86.888 Y113.951 E.0136
G1 X87.351 Y113.973 E.01455
G1 X87.792 Y114.054 E.01404
G1 X88.015 Y114.118 E.00729
G1 X88.427 Y114.283 E.01392
G1 X88.633 Y114.39 E.00729
G1 X89.005 Y114.633 E.01392
G1 X89.352 Y114.932 E.01435
G1 X89.647 Y115.264 E.01393
G1 X89.791 Y115.463 E.00771
G1 X90.009 Y115.838 E.0136
G1 X90.182 Y116.25 E.01402
G1 X90.25 Y116.472 E.00729
G1 X90.318 Y116.81 E.01081
M204 S1000
G1 X90.583 Y116.967 F10800
;WIPE_START
G1 F8640
G1 X90.361 Y117.139 E-.07649
G1 X90.361 Y117.583 E-.10249
G1 X90.338 Y117.814 E-.05368
G1 X90.25 Y118.249 E-.10248
G1 X90.182 Y118.471 E-.05368
G1 X90.011 Y118.881 E-.10248
G1 X89.772 Y119.287 E-.10885
G1 X89.507 Y119.626 E-.09934
G1 X89.347 Y119.794 E-.05365
G1 X89.324 Y119.814 E-.00687
;WIPE_END
G1 E-.04 F2100
G1 Z.6 F720
G1 X100.787 Y93.236 F10800
G1 Z.2 F720
G1 E.8 F2100
M204 S800
;TYPE:Perimeter
G1 F1200
G1 X100.787 Y119.787 E.8325
G1 X92.173 Y119.787 E.27009
G1 X93.684 Y116.821 E.10437
G1 X93.805 Y116.534 E.00978
G1 X93.879 Y116.261 E.00886
G1 X93.923 Y115.816 E.01403
G1 X93.88 Y115.38 E.01373
G1 X93.751 Y114.961 E.01373
G1 X93.538 Y114.568 E.01403
G1 X93.365 Y114.345 E.00886
G1 X93.163 Y114.147 E.00886
G1 X92.783 Y113.88 E.01457
G1 X86.096 Y110.471 E.23535
G1 X85.928 Y109.107 E.04309
G1 X85.809 Y107.741 E.043
G1 X85.737 Y106.371 E.04301
G1 X85.714 Y104.951 E.04451
G1 X85.737 Y103.629 E.04147
G1 X85.809 Y102.259 E.043
G1 X85.928 Y100.893 E.043
G1 X86.095 Y99.532 E.043
G1 X86.31 Y98.178 E.043
G1 X86.571 Y96.832 E.043
G1 X86.88 Y95.496 E.043
G1 X87.235 Y94.171 E.043
G1 X87.528 Y93.213 E.03141
G1 X100.75 Y93.213 E.41458
M204 S1000
G1 X100.41 Y93.59 F10800
M204 S800
;TYPE:External perimeter
G1 F1200
G1 X100.41 Y119.41 E.80957
G1 X92.788 Y119.41 E.23897
G1 X94.026 Y116.98 E.08551
G1 X94.162 Y116.656 E.011
G1 X94.251 Y116.329 E.01062
G1 X94.302 Y115.816 E.01619
G1 X94.251 Y115.305 E.01608
G1 X94.101 Y114.815 E.01608
G1 X93.855 Y114.361 E.01619
G1 X93.647 Y114.094 E.01062
G1 X93.405 Y113.856 E.01062
G1 X92.978 Y113.556 E.01638
G1 X86.445 Y110.226 E.22989
G1 X86.303 Y109.067 E.0366
G1 X86.185 Y107.714 E.04258
G1 X86.114 Y106.358 E.04259
G1 X86.091 Y104.952 E.0441
G1 X86.114 Y103.642 E.04107
G1 X86.185 Y102.286 E.04258
G1 X86.303 Y100.933 E.04258
G1 X86.469 Y99.585 E.04258
G1 X86.681 Y98.243 E.04258
G1 X86.94 Y96.91 E.04258
G1 X87.246 Y95.587 E.04258
G1 X87.597 Y94.275 E.04258
G1 X87.807 Y93.59 E.02246
G1 X100.35 Y93.59 E.39329
M204 S1000
G1 X100.81 Y93.583 F10800
;WIPE_START
G1 F8640
G1 X100.358 Y96.881 E-.76
;WIPE_END
G1 E-.04 F2100
G1 Z.6 F720
G1 X101.036 Y76.395 F10800
G1 Z.2 F720
G1 E.8 F2100
M204 S800
;TYPE:Perimeter
G1 F1200
G1 X100.447 Y76.281 E.01881
G1 X100.19 Y76.198 E.00846
G1 X99.75 Y76.004 E.01509
G1 X99.305 Y75.735 E.01631
G1 X98.923 Y75.427 E.0154
G1 X98.584 Y75.071 E.0154
G1 X98.418 Y74.858 E.00846
G1 X98.162 Y74.451 E.01509
G1 X98.041 Y74.209 E.00846
G1 X97.87 Y73.759 E.01509
G1 X97.8 Y73.499 E.00846
G1 X97.72 Y73.024 E.01509
G1 X97.703 Y72.755 E.00846
G1 X97.718 Y72.274 E.01509
G1 X97.754 Y72.006 E.00846
G1 X97.864 Y71.538 E.01509
G1 X97.952 Y71.283 E.00846
M73 Q1 S71
G1 X98.153 Y70.845 E.01509
G1 X98.289 Y70.612 E.00846
G1 X98.572 Y70.223 E.01509
G1 X98.751 Y70.021 E.00846
G1 X99.105 Y69.695 E.01509
G1 X99.321 Y69.533 E.00845
G1 X99.72 Y69.29 E.01464
G1 X99.975 Y69.167 E.00889
G1 X100.429 Y69.003 E.01513
G1 X100.936 Y68.892 E.0163
G1 X101.412 Y68.852 E.01495
G1 X101.925 Y68.876 E.01612
M73 P1 R70
G1 X102.409 Y68.965 E.01542
G1 X102.668 Y69.04 E.00846
G1 X103.115 Y69.219 E.01509
G1 X103.355 Y69.343 E.00846
G1 X103.758 Y69.606 E.01509
G1 X103.968 Y69.776 E.00846
G1 X104.311 Y70.113 E.01509
G1 X104.478 Y70.314 E.00819
G1 X104.638 Y70.536 E.00858
G1 X104.878 Y70.948 E.01495
G1 X105.068 Y71.4 E.01538
G1 X105.147 Y71.658 E.00846
G1 X105.242 Y72.13 E.01509
G1 X105.269 Y72.399 E.00846
G1 X105.269 Y72.88 E.01509
G1 X105.242 Y73.149 E.00846
G1 X105.147 Y73.62 E.01509
G1 X105.068 Y73.878 E.00846
G1 X104.882 Y74.322 E.01509
G1 X104.758 Y74.551 E.00816
G1 X104.62 Y74.771 E.00816
G1 X104.318 Y75.159 E.0154
G1 X103.968 Y75.503 E.0154
G1 X103.765 Y75.666 E.00816
G1 X103.552 Y75.816 E.00816
G1 X103.133 Y76.052 E.01509
G1 X102.886 Y76.16 E.00846
G1 X102.419 Y76.312 E.0154
G1 X101.936 Y76.401 E.0154
G1 X101.676 Y76.422 E.00816
G1 X101.416 Y76.426 E.00816
G1 X101.096 Y76.4 E.01007
M204 S1000
G1 X101.429 Y76.049 F10800
M204 S800
;TYPE:External perimeter
G1 F1200
G1 X100.983 Y76.012 E.01403
G1 X100.546 Y75.917 E.01403
G1 X100.325 Y75.845 E.00729
G1 X99.918 Y75.667 E.01392
G1 X99.719 Y75.554 E.00718
G1 X99.527 Y75.429 E.00718
G1 X99.179 Y75.149 E.01403
G1 X98.87 Y74.825 E.01403
G1 X98.728 Y74.641 E.00729
G1 X98.491 Y74.266 E.01392
G1 X98.387 Y74.058 E.00729
G1 X98.229 Y73.643 E.01392
G1 X98.168 Y73.418 E.00729
G1 X98.095 Y72.981 E.01392
G1 X98.08 Y72.749 E.00729
G1 X98.095 Y72.305 E.01392
G1 X98.125 Y72.075 E.00729
G1 X98.227 Y71.643 E.01392
G1 X98.303 Y71.423 E.00729
G1 X98.488 Y71.019 E.01392
G1 X98.605 Y70.819 E.00729
G1 X98.866 Y70.459 E.01392
G1 X99.02 Y70.286 E.00729
G1 X99.347 Y69.985 E.01392
G1 X99.533 Y69.846 E.00729
G1 X99.9 Y69.622 E.01349
G1 X100.121 Y69.515 E.00771
G1 X100.539 Y69.364 E.01393
G1 X100.761 Y69.308 E.00718
G1 X100.986 Y69.266 E.00718
G1 X101.419 Y69.23 E.0136
G1 X101.882 Y69.252 E.01455
G1 X102.322 Y69.332 E.01404
G1 X102.546 Y69.397 E.00729
G1 X102.958 Y69.562 E.01392
G1 X103.164 Y69.669 E.00729
G1 X103.536 Y69.912 E.01392
G1 X103.717 Y70.058 E.00729
G1 X104.033 Y70.369 E.01392
G1 X104.18 Y70.545 E.00719
G1 X104.322 Y70.742 E.0076
G1 X104.54 Y71.116 E.0136
G1 X104.713 Y71.529 E.01402
G1 X104.781 Y71.751 E.00729
G1 X104.869 Y72.186 E.01392
G1 X104.892 Y72.417 E.00729
G1 X104.892 Y72.861 E.01392
G1 X104.869 Y73.093 E.00729
G1 X104.781 Y73.528 E.01392
G1 X104.713 Y73.75 E.00729
G1 X104.541 Y74.159 E.01392
G1 X104.432 Y74.361 E.00718
G1 X104.31 Y74.554 E.00718
G1 X104.036 Y74.907 E.01403
G1 X103.717 Y75.221 E.01403
G1 X103.538 Y75.365 E.00718
G1 X103.351 Y75.496 E.00718
G1 X102.964 Y75.714 E.01392
G1 X102.751 Y75.807 E.00729
G1 X102.326 Y75.946 E.01403
G1 X101.886 Y76.026 E.01403
G1 X101.489 Y76.048 E.01247
M204 S1000
G1 X101.223 Y76.392 F10800
;WIPE_START
G1 F8640
G1 X100.983 Y76.012 E-.11708
G1 X100.546 Y75.917 E-.10329
G1 X100.325 Y75.845 E-.05368
G1 X99.918 Y75.667 E-.10248
G1 X99.719 Y75.554 E-.05287
G1 X99.527 Y75.429 E-.05288
G1 X99.179 Y75.149 E-.10329
G1 X98.87 Y74.825 E-.10329
G1 X98.728 Y74.641 E-.05368
G1 X98.687 Y74.577 E-.01746
;WIPE_END
G1 E-.04 F2100
G1 Z.6 F720
G1 X142.318 Y70.282 F10800
G1 Z.2 F720
G1 E.8 F2100
M204 S800
;TYPE:Perimeter
G1 F1200
G1 X143.421 Y77.194 E.21944
G1 X143.503 Y77.462 E.00879
G1 X143.707 Y77.871 E.01434
M73 Q1 S70
G1 X143.867 Y78.092 E.00855
G1 X144.186 Y78.406 E.01403
G1 X144.553 Y78.645 E.01372
G1 X144.968 Y78.811 E.01403
G1 X145.235 Y78.869 E.00855
G1 X145.692 Y78.892 E.01433
G1 X153.259 Y77.707 E.24015
G1 X154.196 Y78.712 E.04309
G1 X155.096 Y79.747 E.043
G1 X155.959 Y80.812 E.043
G1 X156.79 Y81.915 E.0433
G1 X156.355 Y82.787 E.03054
G1 X140.557 Y82.787 E.49535
G1 X139.032 Y83.01 E.04832
G1 X137.91 Y83.577 E.03939
G1 X137.071 Y84.398 E.03681
G1 X136.305 Y85.635 E.04561
G1 X135.763 Y86.973 E.04528
G1 X135.316 Y88.518 E.05043
G1 X134.928 Y90.207 E.05434
G1 X134.158 Y93.767 E.1142
G1 X133.68 Y95.534 E.0574
G1 X133.069 Y97.219 E.05617
G1 X132.302 Y98.696 E.0522
G1 X131.31 Y99.957 E.0503
G1 X130.048 Y100.93 E.04998
G1 X128.43 Y101.572 E.05456
G1 X126.545 Y101.787 E.0595
G1 X116.213 Y101.787 E.32395
G1 X116.213 Y93.213 E.26884
G1 X125.213 Y93.213 E.28219
G1 X125.213 Y82.787 E.32689
G1 X93.645 Y82.787 E.9898
G1 X93.21 Y81.915 E.03054
G1 X94.041 Y80.812 E.0433
G1 X94.904 Y79.747 E.043
G1 X95.804 Y78.712 E.043
G1 X96.74 Y77.708 E.04305
G1 X104.237 Y78.887 E.23796
G1 X104.683 Y78.88 E.01397
G1 X105.11 Y78.786 E.01373
G1 X105.511 Y78.61 E.01373
G1 X105.87 Y78.359 E.01373
G1 X106.178 Y78.035 E.01403
G1 X106.337 Y77.801 E.00886
G1 X106.463 Y77.548 E.00886
G1 X106.599 Y77.104 E.01457
G1 X107.775 Y69.69 E.23535
G1 X109.02 Y69.109 E.04309
G1 X110.283 Y68.574 E.043
G1 X111.563 Y68.082 E.043
G1 X112.86 Y67.636 E.043
G1 X114.171 Y67.235 E.043
G1 X115.496 Y66.88 E.043
G1 X116.832 Y66.571 E.043
G1 X118.178 Y66.31 E.043
G1 X119.532 Y66.095 E.043
G1 X120.893 Y65.928 E.043
G1 X122.259 Y65.809 E.043
G1 X123.629 Y65.737 E.043
G1 X124.951 Y65.714 E.04147
G1 X126.371 Y65.737 E.04451
G1 X127.741 Y65.809 E.04301
G1 X129.107 Y65.928 E.043
G1 X130.468 Y66.095 E.043
G1 X131.822 Y66.31 E.043
G1 X133.168 Y66.571 E.043
G1 X134.504 Y66.88 E.043
G1 X135.829 Y67.235 E.043
G1 X137.14 Y67.636 E.043
G1 X138.437 Y68.082 E.043
G1 X139.717 Y68.574 E.043
G1 X140.98 Y69.109 E.043
G1 X142.224 Y69.69 E.04305
G1 X142.309 Y70.223 E.01694
M204 S1000
G1 X141.883 Y69.947 F10800
M204 S800
;TYPE:External perimeter
G1 F1200
G1 X143.052 Y77.279 E.23281
